X:2160
T:Garret's Wedding
O:england
M:9/8
L:1/8
S:Paddy Moloney, The Chieftains
R:Slip Jig
K:G
|:~E3 e2 B G2 B | A2 A A2 G A2 B | ~E3 G2 B e2 f |1gfe fed ~B3 :|2 gfe fed e2 e||
g2 B BAB g2 e | f2 A AFA f2 d |1g2 B BAB g2 e|fdd afd gfe :|2 g2 e fed efg|BcB AGF ~E3||


